ix/gallery_twotone.svg

<svg viewBox="0 0 24 24" fill="none" xmlns="http://www.w3.org/2000/svg" height="1em" width="1em">
  <path d="M9 22H15C20 22 22 20 22 15V9C22 4 20 2 15 2H9C4 2 2 4 2 9V15C2 20 4 22 9 22Z" stroke="#292D32" stroke-width="1.5" stroke-linecap="round" stroke-linejoin="round"/>
  <path opacity="0.4" d="M9 10C10.1046 10 11 9.10457 11 8C11 6.89543 10.1046 6 9 6C7.89543 6 7 6.89543 7 8C7 9.10457 7.89543 10 9 10Z" stroke="#292D32" stroke-width="1.5" stroke-linecap="round" stroke-linejoin="round"/>
  <path opacity="0.4" d="M2.66992 18.9501L7.59992 15.6401C8.38992 15.1101 9.52992 15.1701 10.2399 15.7801L10.5699 16.0701C11.3499 16.7401 12.6099 16.7401 13.3899 16.0701L17.5499 12.5001C18.3299 11.8301 19.5899 11.8301 20.3699 12.5001L21.9999 13.9001" stroke="#292D32" stroke-width="1.5" stroke-linecap="round" stroke-linejoin="round"/>
</svg>

<svg viewBox="0 0 24 24" fill="none" xmlns="http://www.w3.org/2000/svg" height="1em" width="1em">
  <path d="M9 22h6c5 0 7-2 7-7V9c0-5-2-7-7-7H9C4 2 2 4 2 9v6c0 5 2 7 7 7Z" stroke="#292D32" stroke-width="1.5" stroke-linecap="round" stroke-linejoin="round"/>
  <path opacity=".4" d="M9 10a2 2 0 1 0 0-4 2 2 0 0 0 0 4Zm-6.33 8.95 4.93-3.31c.79-.53 1.93-.47 2.64.14l.33.29c.78.67 2.04.67 2.82 0l4.16-3.57c.78-.67 2.04-.67 2.82 0L22 13.9" stroke="#292D32" stroke-width="1.5" stroke-linecap="round" stroke-linejoin="round"/>
</svg>
